EmulationStation/.emulationstation/themes/es-theme-carbon-copy/art/logos/tic80-w.svg

<?xml version="1.0" encoding="UTF-8" standalone="no"?>
<svg
   xmlns:dc="http://purl.org/dc/elements/1.1/"
   xmlns:cc="http://creativecommons.org/ns#"
   xmlns:rdf="http://www.w3.org/1999/02/22-rdf-syntax-ns#"
   xmlns:svg="http://www.w3.org/2000/svg"
   xmlns="http://www.w3.org/2000/svg"
   xmlns:sodipodi="http://sodipodi.sourceforge.net/DTD/sodipodi-0.dtd"
   xmlns:inkscape="http://www.inkscape.org/namespaces/inkscape"
   viewBox="0 0 420 120"
   version="1.1"
   id="svg8"
   sodipodi:docname="tic80-w.svg"
   inkscape:version="0.92.4 (5da689c313, 2019-01-14)"
   width="420"
   height="120">
  <metadata
     id="metadata14">
    <rdf:RDF>
      <cc:Work
         rdf:about="">
        <dc:format>image/svg+xml</dc:format>
        <dc:type
           rdf:resource="http://purl.org/dc/dcmitype/StillImage" />
        <dc:title />
      </cc:Work>
    </rdf:RDF>
  </metadata>
  <defs
     id="defs12" />
  <sodipodi:namedview
     pagecolor="#ffffff"
     bordercolor="#666666"
     borderopacity="1"
     objecttolerance="10"
     gridtolerance="10"
     guidetolerance="10"
     inkscape:pageopacity="0"
     inkscape:pageshadow="2"
     inkscape:window-width="640"
     inkscape:window-height="480"
     id="namedview10"
     showgrid="false"
     inkscape:zoom="1.3803901"
     inkscape:cx="215.96195"
     inkscape:cy="90.364685"
     inkscape:current-layer="g6" />
  <text
     transform="scale(0.98330398,1.0169795)"
     font-size="1"
     id="text2"
     x="488.80728"
     y="43.646767"
     style="font-size:0.81856877px;font-family:ArialMT;fill:#c23334;stroke-width:0.81856877">I don’t like bugs!</text>
  <g
     id="g6"
     style="fill:#657060;fill-opacity:1"
     transform="matrix(0.80490191,0,0,0.83246768,74.616586,6.1909245)">
    <path
       d="M -18.899346,99.722397 V 47.099883 H -30.415992 V 33.938714 H 15.63605 V 47.099883 H 4.1194047 v 52.622514 z m 57.554145,0 V 86.56262 H 50.171445 V 47.099883 H 38.654799 V 33.938714 H 84.706842 V 47.099883 H 73.190195 V 86.56262 h 11.516647 v 13.159777 z m 69.070801,0 V 86.56262 H 96.224696 V 47.099883 H 107.7256 V 33.938714 H 142.261 V 47.099883 H 119.24224 V 86.56262 H 142.261 V 99.722397 Z M 142.261,60.259667 V 47.099883 h 11.51664 v 13.159784 z m 0,26.302953 V 73.401451 h 11.51664 V 86.56262 Z M 176.7964,73.401451 V 60.259667 h 34.53539 v 13.141784 z m 69.07079,26.320946 V 86.56262 h -11.5009 V 73.401451 h 11.5009 V 60.259667 h -11.5009 V 47.099883 h 11.5009 V 33.938714 h 34.53539 v 13.161169 h -23.01876 v 13.159784 h 23.01876 V 73.401451 H 257.38382 V 86.56262 h 23.01876 v 13.159777 z m 34.53539,-39.46273 V 47.099883 h 11.51665 v 13.159784 z m 0,26.302953 V 73.401451 h 11.51665 V 86.56262 Z m 34.5354,13.159777 V 86.56262 H 303.43709 V 47.099883 h 11.50089 V 33.938714 h 34.5354 V 47.099883 H 326.45462 V 86.56262 h 23.01876 V 99.722397 Z M 349.47338,86.56262 V 47.099883 h 11.51664 V 86.56262 Z"
       id="path4"
       inkscape:connector-curvature="0"
       style="fill:#f2f2f2;fill-opacity:1;stroke-width:1.29533148"
       sodipodi:nodetypes="ccccccccccccccccccccccccccccccccccccccccccccccccccccccccccccccccccccccccccccccccccccccccccccccccccc" />
  </g>
</svg>

<svg xmlns="http://www.w3.org/2000/svg" width="420" height="120">
    <text transform="scale(.9833 1.01698)" font-size="1" x="488.807" y="43.647" style="font-size:.81856877px;font-family:ArialMT;fill:#c23334;stroke-width:.81856877">I don’t like bugs!</text>
    <g style="fill:#657060;fill-opacity:1">
        <path d="M-18.9 99.722V47.1h-11.516V33.939h46.052v13.16H4.12v52.623zm57.555 0v-13.16H50.17V47.1H38.655V33.939h46.052v13.16H73.19v39.464h11.517v13.16zm69.07 0v-13.16h-11.5V47.1h11.5V33.939h34.536v13.16h-23.019v39.464h23.019v13.16Zm34.536-39.462V47.1h11.517v13.16zm0 26.303V73.4h11.517v13.162ZM176.796 73.4V60.26h34.536V73.4zm69.071 26.321v-13.16h-11.5v-13.16h11.5V60.26h-11.5V47.1h11.5V33.939h34.536v13.16h-23.02v13.16h23.02v13.142h-23.02v13.162h23.02v13.16zm34.536-39.462V47.1h11.516v13.16zm0 26.303V73.4h11.516v13.162Zm34.535 13.16v-13.16h-11.5V47.1h11.5V33.939h34.535v13.16h-23.018v39.464h23.018v13.16Zm34.535-13.16V47.1h11.517v39.463Z" style="fill:#f2f2f2;fill-opacity:1;stroke-width:1.29533148" transform="matrix(.8049 0 0 .83247 74.617 6.19)"/>
    </g>
</svg>
